src/images/logo-icon.svg

<svg width="49" height="72" viewBox="0 0 49 72" fill="none" xmlns="http://www.w3.org/2000/svg">
<g clip-path="url(#clip0_106_5314)">
<path d="M11.1294 40.6662C8.8528 40.6662 7.07344 39.7207 5.98756 37.9318C3.74814 34.2485 4.78328 27.392 7.07682 22.8924C9.23844 18.6547 10.2668 18.0867 10.9874 18.0867C11.3493 18.0867 11.9988 18.2602 12.2559 19.4301C12.4453 20.2872 12.4623 21.2191 12.4826 22.1203C12.5231 24.0657 12.557 25.9023 14.1976 26.9906L16.2645 28.3647L13.7883 28.2388C10.7675 28.0858 10.3345 25.4738 9.98266 23.3753C9.94206 23.1271 9.90147 22.889 9.85749 22.6543C9.43126 23.3889 8.89678 24.5657 8.69381 25.1133C7.317 28.868 7.40157 32.5581 8.91707 34.7484C9.92853 36.2075 11.4812 36.9455 13.5312 36.9455C14.5021 36.9455 15.5812 36.7754 16.7347 36.4387C21.6601 35.0001 23.1147 32.7486 26.6261 27.3103C26.9001 26.8852 27.1876 26.4431 27.4853 25.9805C27.0151 25.7697 26.6159 25.4194 26.3047 24.9398C25.2019 23.2529 25.3677 20.1682 25.9563 17.9337C24.4103 18.3894 23.0437 18.6037 21.721 18.6037H21.6669C21.6364 18.6037 21.606 18.6071 21.5755 18.6071C21.1527 18.6071 20.8212 18.3214 20.7671 17.9099C20.6351 16.8453 23.5883 13.8626 24.3055 13.679C24.4712 13.6348 24.6404 13.6143 24.823 13.6143C25.1207 13.6143 25.3914 13.6722 25.6518 13.73C25.9123 13.7844 26.1559 13.8388 26.4299 13.8388C26.6701 13.8388 26.9069 13.798 27.1606 13.7164C28.2092 13.3729 30.0393 11.5499 31.5075 10.0875C32.1434 9.45148 32.7456 8.85289 33.2699 8.38015L33.2902 8.35974L33.3308 8.32913C33.9499 7.85299 34.6806 7.234 35.4552 6.5776C38.4118 4.07443 42.0923 0.959081 45.2484 0.690399H45.2755H45.6206L45.8472 0.942076C45.9825 1.10192 46.04 1.31279 46.0062 1.52025C44.9203 8.14888 36.8929 12.4274 31.5819 15.2605C31.1557 15.4883 30.7463 15.706 30.3607 15.9135C30.1239 16.0427 29.8837 16.291 29.7315 16.5596C29.2681 17.3895 29.17 18.6921 29.4372 20.4334C29.559 21.2191 29.718 21.4844 29.7755 21.5592C30.0224 21.498 30.6043 20.9844 30.9595 20.6681C31.3011 20.3654 31.6529 20.0525 32.0284 19.7838C32.1536 19.6954 32.3024 19.6444 32.4547 19.6444C32.7118 19.6444 32.9553 19.7838 33.0872 20.0049C33.2226 20.2294 33.2327 20.5049 33.1109 20.7361L33.0365 20.879C28.1991 30.1604 24.0247 38.1801 13.2674 40.4315C12.5096 40.5914 11.7891 40.6696 11.1193 40.6696L11.1294 40.6662ZM41.8656 4.66281C39.7717 5.37703 35.7495 8.73386 33.6285 11.016C33.7131 10.9751 33.7976 10.9343 33.8822 10.8935C37.0857 9.36305 40.3907 7.78497 41.8623 4.65941L41.8656 4.66281Z" fill="#5F267A"/>
<path d="M45.3127 1.36042C45.333 1.36042 45.3499 1.38082 45.3466 1.40123C44.2268 8.22031 35.073 12.5872 30.0495 15.3081C29.6672 15.5155 29.3459 15.8726 29.1497 16.2196C28.4562 17.4609 28.5746 19.2159 28.7775 20.5287C28.9738 21.7939 29.312 22.236 29.745 22.236C30.4554 22.236 31.4195 21.0524 32.4276 20.328C32.4378 20.3212 32.4513 20.3178 32.4614 20.3178C32.5054 20.3178 32.5426 20.3688 32.5189 20.4164C27.7627 29.5482 23.6357 37.5645 13.1354 39.765C12.4081 39.918 11.7383 39.9894 11.126 39.9894C3.58915 39.9894 4.69194 29.0483 7.6722 23.2053C8.05446 22.4537 9.92515 18.7703 10.9806 18.7703C11.2478 18.7703 11.4609 19.005 11.5895 19.5798C12.1646 22.1918 11.0381 25.7153 13.8188 27.562C10.7167 27.4022 10.9434 24.1032 10.3582 21.7667C10.2973 21.5286 10.2059 21.4231 10.0909 21.4231C9.45832 21.4231 8.16271 24.5895 8.05446 24.8786C5.69326 31.3066 7.36436 37.6257 13.5278 37.6257C14.5359 37.6257 15.6658 37.4556 16.9174 37.0917C22.631 35.4218 23.8928 32.7078 28.3953 25.8105L28.5746 25.5316C25.4658 25.4738 25.848 19.7124 26.9847 16.927C26.9914 16.9066 26.9779 16.8862 26.9576 16.8862C24.7554 17.665 23.1012 17.9201 21.7109 17.9201C21.6804 17.9201 21.6534 17.9201 21.6229 17.9201C21.6026 17.9201 21.5857 17.9235 21.5688 17.9235C20.7468 17.9235 23.8386 14.4952 24.4679 14.332C24.5862 14.3014 24.7013 14.2878 24.8163 14.2878C25.3034 14.2878 25.777 14.5088 26.4265 14.5088C26.7039 14.5088 27.0117 14.468 27.3669 14.3524C29.0516 13.8014 31.9337 10.4752 33.73 8.86311C36.6696 6.59461 41.5409 1.67671 45.2992 1.35701M31.636 12.7641C31.636 12.7641 31.6462 12.7641 31.6529 12.7607C35.8206 10.5262 41.2703 8.94133 42.8771 3.9282C42.8839 3.9112 42.8737 3.88739 42.8568 3.88399C42.7655 3.85678 42.6606 3.84317 42.549 3.84317C39.907 3.84317 32.069 10.8323 31.6056 12.7267C31.6022 12.7471 31.6191 12.7641 31.636 12.7641ZM45.3127 0H45.2045C41.825 0.292489 38.0566 3.48266 35.0256 6.04705C34.2645 6.68984 33.5473 7.29863 32.9384 7.76797L32.9147 7.78498L32.8944 7.80198L32.8775 7.81559L32.8369 7.853C32.2991 8.33595 31.6834 8.94813 31.0339 9.59773C29.7653 10.8595 27.8507 12.7709 26.9542 13.0634C26.7648 13.1246 26.599 13.1552 26.4299 13.1552C26.2269 13.1552 26.0239 13.111 25.7905 13.0634C25.5098 13.0022 25.1884 12.9342 24.8197 12.9342C24.5862 12.9342 24.3562 12.9614 24.1363 13.0192C23.9063 13.077 23.2906 13.2368 21.7075 15.0122C20.0973 16.8147 20.0262 17.4745 20.0939 17.9949C20.1886 18.7431 20.811 19.2873 21.5722 19.2873C21.6094 19.2873 21.65 19.2873 21.6872 19.2839H21.7142C22.7798 19.2839 23.8725 19.1513 25.0497 18.8758C24.6539 21.0626 24.6674 23.6848 25.733 25.3139C25.9597 25.6608 26.2303 25.9567 26.5347 26.1948C26.369 26.4499 26.21 26.6982 26.051 26.943C22.5396 32.3847 21.2237 34.4185 16.5385 35.7891C15.4459 36.1088 14.4311 36.2721 13.5245 36.2721C11.7079 36.2721 10.3412 35.6327 9.46509 34.3675C8.07137 32.3575 8.01725 28.9054 9.31963 25.3581C9.37037 25.2153 9.45156 25.0214 9.54966 24.8004C9.97251 26.6982 10.8723 28.7796 13.7443 28.9292L18.6934 29.1809L14.5596 26.4329C13.2809 25.5826 13.1896 24.2392 13.149 22.117C13.1287 21.1817 13.1118 20.2158 12.9088 19.2941C12.5367 17.6004 11.4373 17.4167 10.9806 17.4167C9.85411 17.4167 8.65998 18.2942 6.47807 22.5727L6.46792 22.5931C4.12025 27.1947 2.9498 34.2621 5.40233 38.2957C6.62015 40.2989 8.59909 41.3566 11.126 41.3566C11.8398 41.3566 12.6077 41.2716 13.4094 41.1016C24.478 38.782 28.9298 30.242 33.6386 21.1987L33.7131 21.0558C33.9431 20.6137 33.9262 20.0797 33.6691 19.6546C33.412 19.2295 32.9486 18.9676 32.458 18.9676C32.1637 18.9676 31.8796 19.0594 31.6394 19.2329C31.2369 19.522 30.8512 19.8621 30.5129 20.1614C30.4013 20.26 30.2694 20.379 30.1341 20.4913C30.1239 20.4402 30.1171 20.3858 30.107 20.3314C29.86 18.7465 29.9345 17.5902 30.3201 16.8964C30.4081 16.7399 30.5569 16.5835 30.6821 16.5154C31.0643 16.308 31.4737 16.0903 31.8999 15.8624C37.3293 12.9682 45.5326 8.59443 46.676 1.6325C46.7437 1.22778 46.6286 0.816249 46.3648 0.503354C46.1009 0.190458 45.7153 0.0102031 45.3093 0.0102031L45.3127 0ZM37.8705 8.00605C38.3847 7.59452 38.8617 7.23401 39.3015 6.92111C38.8617 7.31223 38.3813 7.66934 37.8705 8.00605Z" fill="white"/>
<path d="M9.91501 71.4898C8.19315 71.4898 6.69795 70.6804 5.70341 69.2145C3.95111 66.6331 3.9139 62.5111 5.59854 58.185C5.61207 58.1475 7.12757 54.5969 8.43333 54.5969H8.51114C8.84604 54.6309 9.11328 54.8996 9.1674 55.2533C9.55643 57.8789 10.4224 59.7869 13.6936 61.7731C14.0826 62.0077 14.0454 62.3172 14.0116 62.4363C13.9575 62.6267 13.7816 62.8342 13.4433 62.8342C13.379 62.8342 13.3147 62.8274 13.2775 62.8206C11.9075 62.5791 10.6051 61.6914 9.45156 60.9058C8.62954 60.3446 7.78045 59.7664 7.32039 59.7664C7.21891 59.7664 7.16816 59.7971 7.12419 59.8447C6.96181 60.0147 6.69795 60.5827 6.75546 62.4975C6.80282 63.9701 9.05915 68.5071 11.6436 68.5071C11.8838 68.5071 12.124 68.4663 12.3574 68.3881C15.6117 67.3065 20.1649 60.1542 23.4902 54.9336C24.7351 52.9746 25.8176 51.2774 26.7174 50.0463C26.4569 50.1177 26.1931 50.1551 25.9292 50.1551C24.4543 50.1551 23.2703 49.0736 22.225 48.1213C21.5789 47.5329 20.97 46.9751 20.5066 46.8969C20.4457 46.8867 20.3916 46.8799 20.3374 46.8799C20.0025 46.8799 19.8638 47.1282 19.5865 47.924C19.2955 48.7573 18.8997 49.9 17.506 49.9612C17.2456 49.9612 17.0426 49.8456 16.9276 49.6483C16.7584 49.3559 16.684 48.9103 17.7733 47.0125C17.8037 46.9581 21.0377 41.4825 22.4923 41.4825C22.7156 41.4825 22.9151 41.5777 23.0538 41.7545C23.4192 42.2477 23.7439 42.7817 24.0585 43.2986C25.0971 45.0025 26.0815 46.6112 28.101 46.6112C28.1517 46.6112 28.2025 46.6112 28.2566 46.6112C28.7403 46.5772 29.6131 45.0978 30.1916 44.1183C30.8546 42.9993 31.477 41.9416 32.1604 41.4621C32.4851 41.2342 32.8099 41.1151 33.1042 41.1151C33.6353 41.1151 34.004 41.4961 34.0209 42.064C34.0344 42.5708 33.1312 44.0911 28.0164 51.6108C27.0929 52.9712 26.3622 54.0459 26.0815 54.488C25.388 55.5866 24.6877 56.7497 23.9469 57.9775C21.8935 61.3887 19.7691 64.9156 17.709 67.1093C15.0163 69.9764 12.3202 71.4898 9.91839 71.4898H9.91501Z" fill="#5F267A"/>
<path d="M33.1008 41.6253C33.341 41.6253 33.5033 41.775 33.5101 42.0776C33.5304 42.8021 26.6701 52.6005 25.6518 54.216C22.9963 58.4162 20.0837 63.8375 17.3369 66.7624C14.5495 69.7281 11.9853 70.9831 9.915 70.9831C5.52073 70.9831 3.3625 65.3237 6.06875 58.3754C6.26495 57.8687 7.64514 55.1138 8.42995 55.1138C8.4401 55.1138 8.45025 55.1138 8.46039 55.1138C8.56864 55.124 8.64307 55.2261 8.65998 55.3315C9.10313 58.3074 10.1721 60.2358 13.4264 62.2118C13.582 62.307 13.5143 62.324 13.4399 62.324C13.4094 62.324 13.379 62.3206 13.3621 62.3172C11.0009 61.9023 8.64307 59.2563 7.317 59.2563C6.58294 59.2563 6.16685 60.0657 6.24465 62.5145C6.2954 64.1096 8.66675 69.0173 11.6402 69.0173C11.9278 69.0173 12.2187 68.9731 12.513 68.8744C17.1677 67.327 23.7676 54.8962 27.1978 50.2469C27.7492 49.4171 27.9454 49.0056 27.7661 49.0056C27.6815 49.0056 27.5158 49.094 27.2688 49.2674C26.802 49.5327 26.3555 49.645 25.9292 49.645C23.7169 49.645 22.0356 46.6418 20.5911 46.3936C20.4998 46.3766 20.4152 46.3698 20.3374 46.3698C18.7577 46.3698 19.4748 49.3593 17.4823 49.4511C17.4823 49.4511 17.479 49.4511 17.4756 49.4511C16.4709 49.4511 21.3286 41.9926 22.4923 41.9926C22.5599 41.9926 22.6141 42.0164 22.6547 42.0674C24.1566 44.1047 25.1173 47.118 28.101 47.118C28.1585 47.118 28.216 47.118 28.2769 47.1146C29.6368 47.016 31.0982 42.8259 32.4513 41.8736C32.6915 41.7035 32.9215 41.6185 33.1042 41.6185M33.1008 40.605C32.705 40.605 32.2754 40.758 31.8694 41.0437C31.0948 41.5845 30.4453 42.6898 29.7552 43.8564C29.3019 44.6216 28.5509 45.8936 28.1653 46.1011C28.145 46.1011 28.1247 46.1011 28.101 46.1011C26.4806 46.1011 25.6586 44.9413 24.4915 43.0333C24.1702 42.5062 23.8386 41.962 23.4699 41.4655L23.4598 41.4553L23.4496 41.4451C23.2162 41.1492 22.8678 40.9791 22.4889 40.9791C22.0694 40.9791 21.2001 40.9791 18.6832 44.6284C17.9729 45.6589 16.322 48.1723 16.322 49.2742C16.322 49.6246 16.4472 49.8694 16.5521 50.0123C16.7686 50.3048 17.1035 50.4748 17.4722 50.4748H17.5094C19.2583 50.3932 19.759 48.9545 20.06 48.0941C20.1412 47.8594 20.2596 47.5193 20.351 47.3935C20.3713 47.3935 20.3916 47.3935 20.4152 47.4003C20.7298 47.4547 21.3658 48.0329 21.8766 48.4988C22.8779 49.4137 24.1127 50.5394 25.6586 50.6551C24.8907 51.774 24.0213 53.1378 23.0538 54.6615C19.7691 59.8175 15.2734 66.8814 12.1916 67.9051C12.0056 67.9664 11.8229 67.997 11.6369 67.997C9.41773 67.997 7.29671 63.7559 7.25611 62.4839C7.21214 61.0793 7.35422 60.5079 7.43202 60.3004C7.81766 60.416 8.61262 60.9568 9.16064 61.3309C10.3548 62.1438 11.7079 63.0655 13.1828 63.3273C13.264 63.3409 13.3519 63.3477 13.4365 63.3477C14.0589 63.3477 14.3938 62.9328 14.4919 62.5791C14.5292 62.4499 14.6712 61.7799 13.9473 61.3411C10.8317 59.4502 10.0368 57.7156 9.66129 55.1818C9.57672 54.5969 9.11666 54.1513 8.55173 54.0969C8.51114 54.0935 8.47054 54.0901 8.42995 54.0901C7.68235 54.0901 7.00579 54.6649 6.16685 56.0117C5.67296 56.8041 5.25011 57.668 5.12156 58.0013C3.37603 62.4839 3.43354 66.7828 5.28055 69.5036C6.3732 71.1157 8.01725 72 9.91162 72C12.4589 72 15.2801 70.4287 18.071 67.4596C20.1683 65.2251 22.3062 61.6744 24.3765 58.2394C25.114 57.015 25.8108 55.8553 26.5043 54.7601C26.7783 54.3248 27.5428 53.199 28.4291 51.8964C34.2983 43.2612 34.5385 42.6354 34.5216 42.0436C34.4979 41.207 33.8991 40.6016 33.0974 40.6016L33.1008 40.605Z" fill="white"/>
<path d="M36.9296 28.9673L35.2298 31.564C35.1374 31.7052 35.1763 31.895 35.3168 31.9879L37.8995 33.6968C38.04 33.7898 38.2288 33.7506 38.3212 33.6094L40.021 31.0128C40.1134 30.8716 40.0745 30.6817 39.934 30.5888L37.3513 28.8799C37.2108 28.7869 37.022 28.8261 36.9296 28.9673Z" fill="#5F267A"/>
<path d="M38.5167 12.56C37.7251 13.0498 36.7711 13.6075 35.7022 14.1755C35.6345 14.2129 35.6311 14.3082 35.6954 14.349C46.4494 20.8552 50.7421 33.9186 45.2518 44.0196C41.7574 50.451 35.1136 54.1819 27.8439 54.5969C27.7965 54.5969 27.7526 54.6275 27.7255 54.6683L26.2878 57.0592C26.254 57.1136 26.298 57.1817 26.3589 57.1783C39.0241 56.226 49 45.6011 49 32.6262C49 24.3514 44.944 17.0358 38.7264 12.5668C38.6655 12.5226 38.5843 12.5192 38.5167 12.56ZM30.6584 8.8665C30.6888 8.83249 30.6719 8.78147 30.628 8.77127C28.6693 8.26452 26.6159 7.99243 24.4983 7.99243C10.9705 7.99243 0 19.0254 0 32.6296C0 44.6828 8.61263 54.7091 19.9856 56.8382C20.0093 56.8416 20.033 56.8314 20.0465 56.8109L21.7413 54.2636C21.765 54.2262 21.7447 54.1785 21.7041 54.1717C19.1873 53.6786 16.6773 52.7773 14.2687 51.4577C2.80773 45.1658 -1.90452 31.6297 3.74815 21.2293C8.36569 12.7267 18.4837 8.94812 28.2871 11.2982C28.3513 11.3118 28.4156 11.2982 28.4596 11.2506C29.1328 10.567 30.0529 9.55011 30.6584 8.8665Z" fill="#5F267A"/>
</g>
<defs>
<clipPath id="clip0_106_5314">
<rect width="49" height="72" fill="white"/>
</clipPath>
</defs>
</svg>

<svg xmlns="http://www.w3.org/2000/svg" width="49" height="72" fill="none" viewBox="0 0 49 72"><g clip-path="url(#a)"><path fill="#5f267a" d="M11.13 40.666c-2.277 0-4.057-.945-5.142-2.734-2.24-3.684-1.205-10.54 1.089-15.04 2.161-4.237 3.19-4.805 3.91-4.805.362 0 1.012.173 1.269 1.343.19.857.206 1.79.227 2.69.04 1.946.074 3.782 1.715 4.87l2.067 1.375-2.477-.126c-3.02-.153-3.453-2.765-3.805-4.864q-.06-.37-.126-.72c-.426.734-.96 1.91-1.163 2.458-1.377 3.755-1.292 7.445.223 9.635 1.012 1.46 2.564 2.198 4.614 2.198.971 0 2.05-.17 3.204-.507 4.925-1.439 6.38-3.69 9.891-9.129l.86-1.33c-.47-.21-.87-.56-1.181-1.04-1.103-1.687-.937-4.772-.349-7.006-1.546.455-2.912.67-4.235.67h-.054l-.091.003a.79.79 0 0 1-.809-.697c-.132-1.065 2.821-4.047 3.538-4.231.166-.044.335-.065.518-.065.298 0 .568.058.829.116.26.054.504.109.778.109.24 0 .477-.041.73-.123 1.05-.343 2.88-2.166 4.348-3.628A51 51 0 0 1 33.27 8.38l.02-.02.04-.03c.62-.477 1.35-1.096 2.125-1.752C38.412 4.074 42.092.959 45.248.69h.373l.226.252c.136.16.193.37.16.578-1.087 6.629-9.114 10.907-14.425 13.74-.426.228-.836.446-1.221.654a1.75 1.75 0 0 0-.63.646c-.463.83-.561 2.132-.294 3.873.122.786.281 1.051.338 1.126.247-.061.83-.575 1.185-.89.341-.304.693-.617 1.068-.885a.74.74 0 0 1 .427-.14c.257 0 .5.14.632.36.136.225.146.5.024.732l-.075.143C28.2 30.16 24.025 38.18 13.267 40.432c-.757.16-1.478.238-2.148.238zM41.865 4.663c-2.094.714-6.117 4.07-8.237 6.353l.253-.123c3.204-1.53 6.509-3.108 7.98-6.234z"/><path fill="#fff" d="M45.313 1.36c.02 0 .037.02.034.041-1.12 6.82-10.274 11.186-15.298 13.907-.382.207-.703.565-.9.912-.693 1.24-.574 2.996-.372 4.309.197 1.265.535 1.707.968 1.707.71 0 1.674-1.184 2.683-1.908a.1.1 0 0 1 .033-.01c.044 0 .082.05.058.098-4.756 9.132-8.883 17.149-19.384 19.349a9.8 9.8 0 0 1-2.009.224c-7.537 0-6.434-10.94-3.454-16.784.382-.751 2.253-4.435 3.309-4.435.267 0 .48.235.608.81.576 2.612-.55 6.135 2.23 7.982-3.102-.16-2.876-3.459-3.46-5.795-.062-.238-.153-.344-.268-.344-.633 0-1.928 3.167-2.037 3.456-2.36 6.428-.69 12.747 5.474 12.747 1.008 0 2.138-.17 3.39-.534 5.713-1.67 6.975-4.384 11.477-11.281l.18-.28c-3.11-.057-2.727-5.819-1.59-8.604.006-.02-.007-.04-.027-.04-2.203.778-3.857 1.033-5.247 1.033h-.088l-.054.003c-.822 0 2.27-3.428 2.899-3.591q.176-.044.348-.044c.487 0 .961.22 1.61.22.278 0 .586-.04.94-.156 1.686-.55 4.568-3.877 6.364-5.489 2.94-2.268 7.81-7.186 11.57-7.506M31.635 12.764s.01 0 .017-.003c4.168-2.235 9.617-3.82 11.224-8.833.007-.017-.003-.04-.02-.044a1 1 0 0 0-.308-.04c-2.642 0-10.48 6.988-10.943 8.883a.032.032 0 0 0 .03.037M45.313 0h-.108c-3.38.292-7.148 3.483-10.18 6.047-.76.643-1.478 1.252-2.087 1.721l-.023.017-.02.017-.018.014-.04.037a50 50 0 0 0-1.803 1.745c-1.269 1.261-3.183 3.173-4.08 3.465a1.7 1.7 0 0 1-.524.092c-.203 0-.406-.044-.64-.092a4.4 4.4 0 0 0-.97-.129q-.352-.001-.684.085c-.23.058-.845.218-2.428 1.993-1.61 1.803-1.682 2.462-1.614 2.983a1.47 1.47 0 0 0 1.478 1.292c.037 0 .078 0 .115-.003h.027c1.066 0 2.159-.133 3.336-.408-.396 2.187-.383 4.809.683 6.438.227.347.497.643.802.88l-.484.749c-3.511 5.442-4.827 7.476-9.512 8.846-1.093.32-2.108.483-3.015.483-1.816 0-3.183-.64-4.059-1.904-1.394-2.01-1.448-5.463-.145-9.01a9 9 0 0 1 .23-.558c.423 1.898 1.322 3.98 4.194 4.13l4.95.25-4.134-2.747c-1.28-.85-1.37-2.194-1.411-4.316-.02-.935-.037-1.901-.24-2.823-.372-1.694-1.472-1.877-1.928-1.877-1.127 0-2.321.877-4.503 5.156l-.01.02C4.12 27.195 2.95 34.263 5.402 38.296c1.218 2.003 3.197 3.06 5.724 3.06.714 0 1.482-.084 2.283-.254 11.069-2.32 15.52-10.86 20.23-19.903l.074-.143c.23-.442.213-.976-.044-1.401a1.42 1.42 0 0 0-1.211-.687c-.294 0-.578.091-.819.265-.402.289-.788.63-1.126.928-.112.099-.244.218-.379.33q-.014-.076-.027-.16c-.247-1.584-.172-2.74.213-3.435.088-.156.237-.312.362-.38.382-.208.792-.426 1.218-.654 5.43-2.894 13.633-7.268 14.776-14.23A1.394 1.394 0 0 0 45.309.01zM37.87 8.006q.773-.616 1.431-1.085c-.44.391-.92.748-1.43 1.085"/><path fill="#5f267a" d="M9.915 71.49c-1.722 0-3.217-.81-4.212-2.275-1.752-2.582-1.79-6.704-.104-11.03.013-.038 1.529-3.588 2.834-3.588h.078c.335.034.602.303.656.656.39 2.626 1.255 4.534 4.527 6.52.389.235.351.544.318.663-.055.19-.23.398-.569.398-.064 0-.128-.007-.165-.013-1.37-.242-2.673-1.13-3.826-1.915-.822-.561-1.672-1.14-2.132-1.14-.101 0-.152.031-.196.079-.162.17-.426.738-.369 2.653.048 1.472 2.304 6.01 4.889 6.01q.362-.001.713-.12c3.255-1.082 7.808-8.234 11.133-13.454 1.245-1.96 2.328-3.657 3.227-4.888q-.391.109-.788.11c-1.475 0-2.659-1.082-3.704-2.035-.646-.588-1.255-1.146-1.718-1.224a1 1 0 0 0-.17-.017c-.334 0-.473.248-.75 1.044-.291.833-.687 1.976-2.081 2.037-.26 0-.463-.115-.578-.313-.17-.292-.244-.738.845-2.636.03-.054 3.265-5.53 4.72-5.53.223 0 .422.096.56.273.366.493.69 1.027 1.005 1.544 1.04 1.703 2.023 3.312 4.043 3.312h.156c.483-.034 1.356-1.513 1.935-2.493.663-1.119 1.285-2.176 1.968-2.656.325-.228.65-.347.944-.347.531 0 .9.381.917.949.013.507-.89 2.027-6.005 9.547-.923 1.36-1.654 2.435-1.934 2.877-.694 1.099-1.394 2.262-2.135 3.49-2.053 3.41-4.178 6.938-6.238 9.131-2.693 2.867-5.389 4.38-7.79 4.38z"/><path fill="#fff" d="M33.1 41.625c.241 0 .403.15.41.453.02.724-6.84 10.522-7.858 12.138-2.656 4.2-5.568 9.621-8.315 12.546-2.787 2.966-5.352 4.221-7.422 4.221-4.394 0-6.552-5.66-3.846-12.608.196-.506 1.576-3.261 2.361-3.261h.03c.109.01.183.112.2.218.443 2.975 1.512 4.904 4.766 6.88.156.095.088.112.014.112a.4.4 0 0 1-.078-.007c-2.361-.415-4.719-3.06-6.045-3.06-.734 0-1.15.809-1.072 3.258.05 1.595 2.422 6.502 5.395 6.502.288 0 .579-.044.873-.143 4.655-1.547 11.255-13.978 14.685-18.627.551-.83.747-1.241.568-1.241q-.126 0-.497.261c-.467.266-.913.378-1.34.378-2.212 0-3.893-3.003-5.338-3.251a1.4 1.4 0 0 0-.254-.024c-1.58 0-.862 2.99-2.855 3.081h-.006c-1.005 0 3.853-7.458 5.016-7.458q.102-.001.163.074c1.502 2.038 2.462 5.051 5.446 5.051q.086 0 .176-.003c1.36-.099 2.821-4.29 4.174-5.241.24-.17.47-.256.653-.256m-.003-1.013c-.396 0-.826.153-1.232.439-.774.54-1.424 1.646-2.114 2.812-.453.766-1.204 2.038-1.59 2.245h-.064c-1.62 0-2.442-1.16-3.61-3.068-.32-.527-.652-1.071-1.021-1.568l-.01-.01-.01-.01a1.21 1.21 0 0 0-.961-.466c-.42 0-1.289 0-3.806 3.65-.71 1.03-2.361 3.543-2.361 4.645 0 .35.125.595.23.738.217.293.552.463.92.463h.037c1.75-.082 2.25-1.52 2.551-2.38.081-.236.2-.576.291-.701q.029-.002.064.006c.315.055.95.633 1.462 1.099 1 .915 2.236 2.04 3.782 2.156-.768 1.119-1.638 2.483-2.605 4.006-3.285 5.157-7.78 12.22-10.862 13.244a1.8 1.8 0 0 1-.555.092c-2.22 0-4.34-4.241-4.38-5.513-.045-1.405.097-1.976.175-2.184.386.116 1.18.657 1.729 1.03 1.194.814 2.547 1.736 4.022 1.997.081.014.169.02.254.02.622 0 .957-.414 1.055-.768.037-.13.18-.8-.545-1.238-3.115-1.89-3.91-3.625-4.286-6.16a1.256 1.256 0 0 0-1.231-1.09c-.748 0-1.424.574-2.263 1.92-.494.793-.917 1.657-1.045 1.99-1.746 4.483-1.688 8.782.159 11.503C6.373 71.116 8.017 72 9.91 72c2.548 0 5.37-1.571 8.16-4.54 2.097-2.235 4.235-5.786 6.305-9.22.738-1.225 1.435-2.385 2.128-3.48.274-.435 1.039-1.561 1.925-2.864 5.87-8.635 6.11-9.26 6.093-9.852-.024-.837-.623-1.442-1.425-1.442z"/><path fill="#5f267a" d="m36.93 28.967-1.7 2.597a.307.307 0 0 0 .087.424l2.583 1.709c.14.093.329.054.421-.088l1.7-2.596a.307.307 0 0 0-.087-.424l-2.583-1.71a.303.303 0 0 0-.421.088"/><path fill="#5f267a" d="M38.517 12.56a50 50 0 0 1-2.815 1.615.1.1 0 0 0-.007.174c10.754 6.506 15.047 19.57 9.557 29.67-3.495 6.432-10.138 10.163-17.408 10.578-.047 0-.091.03-.119.071l-1.437 2.391a.079.079 0 0 0 .07.12C39.025 56.225 49 45.6 49 32.625a24.65 24.65 0 0 0-10.274-20.06.19.19 0 0 0-.21-.006m-7.859-3.693a.057.057 0 0 0-.03-.096 24.4 24.4 0 0 0-6.13-.779C10.97 7.992 0 19.025 0 32.63c0 12.053 8.613 22.08 19.986 24.208a.06.06 0 0 0 .06-.027l1.695-2.547c.024-.038.004-.086-.037-.092a25.8 25.8 0 0 1-7.435-2.714C2.808 45.166-1.905 31.63 3.749 21.229c4.617-8.502 14.735-12.28 24.538-9.93.064.013.129 0 .173-.048.673-.684 1.593-1.7 2.198-2.384"/></g><defs><clipPath id="a"><path fill="#fff" d="M0 0h49v72H0z"/></clipPath></defs></svg>
